X:3
T:Cabin In The Sky
C:Vernon Duke
L:1/4
M:C
I:linebreak $
K:G
"G" ^C D"G#ø" F E |"Am" ^D E"Bbo" G F |"Bø" A4 |"Bb7" ^G e2 d |$
"Am" c B/c/"AmM" A B Ox///||"Am" c B/c/"Ao" A B ||1"Bm" G"Bb7" d3 |"Am" d2"Ab7" E F :|2$
"G" G2"G#" z2 |"G6" z2"C" G A ||"F#m" B2"F7" d c |"Em6" B2"Dbø" G A ||$[K:E]"F#m" B B"F7" d c |
"E" B2 E F ||[K:G]"Em" G2"EmM" B A |"Em" G2"A7" A2 |$"D7" D2"C" e B |
"Bm" d/d/A/A/"Am" B"_D.C. al Coda" D ||O"Am" e G"Ab7" G A |"G6" G4 | z4 |]

